actions/22x22-light/automated-tasks.svg

<svg viewBox="0 0 22 22" xmlns="http://www.w3.org/2000/svg"><path d="m10.958984 3c-.42403 0-.767578.3457275-.767578.7734375-.00015.28618.156036.5341288.384766.6679687h-.00586v.7949219h.730469v-.7714843c.25139-.12745.425781-.3882663.425781-.6914063 0-.42771-.343398-.7734375-.767578-.7734375zm.041016 2.6347656c-.56282.02039-1.2123581.1302975-1.9238281.3984375-2.39521.90312-2.5488281 3.8066407-2.5488281 3.8066407v1.5917972c-.63376.04203-1.1347657.573346-1.1347657 1.222656v3.291015c-.2573.124991-.4375.388013-.4375.695313 0 .42779.3438282.775321.7675781.775391.42422 0 .7675782-.347601.7675782-.775391 0-.30693-.1783469-.570322-.4355469-.695313v-2.201171c.1427.07398.3038163.119259.4726563.130859v.763672c-.0040001.06183-.0097657.1243-.0097657.1875 0 .06703.0047657.132919.0097657.199219v.017578c.10226 1.27429 1.0906299 2.294354 2.34375 2.433593l-.0019532.017579h2.1308594 2.130859l-.001953-.017579c1.25317-.13924 2.24149-1.159273 2.34375-2.433593h.001953v-.017578c.005-.06633.007813-.132219.007813-.199219 0-.06335-.003813-.1257-.007813-.1875v-.763672c.16821-.01145.328013-.057259.470703-.130859v2.201171c-.256739.124981-.435546.388013-.435546.695313 0 .42745.343618.773437.767578.773437s.767578-.346017.767578-.773437c0-.30712-.178277-.570332-.435547-.695313v-3.291015c0-.64912-.501446-1.180456-1.134766-1.222656v-1.5937504s-.155131-2.9015675-2.550781-3.8046875c-.71077-.26799-1.360598-.3780375-1.923828-.3984375zm-.041016 1.3007813h.019532.021484.019531.021485c.4391.00833 1.558264.1483319 2.302734.7949219.76752.66668.767578 1.7636718.767578 1.7636718 0 .9893504-.767578 1.0546874-.767578 1.0546874-.26735.0851-.831961.0429-1.087891 0-.2354-.04005-1.098798-.114953-1.236328-.126953-.0048.001-.012531.001623-.019531.001953-.007-.001-.014531-.001433-.019531-.001953-.13737.01224-1.0011884.086953-1.2363284.126953-.25548.0429-.8206906.0851-1.0878906 0 0 0-.7675781-.065527-.7675781-1.0546874 0 0-.0001719-1.0969918.7675781-1.7636718.74435-.6465901 1.864084-.7869219 2.302734-.7949219zm-1.9824215 1.8710937c-.31839 0-.5761719.2594281-.5761719.5800782 0 .32077.2577819.5820312.5761719.5820312.31764 0 .5761719-.2612612.5761719-.5820312 0-.3206501-.2585719-.5800782-.5761719-.5800782zm3.9667965 0c-.31839 0-.576171.2593182-.576171.5800782 0 .32051.257751.5818812.576171.5820312.31753 0 .576172-.2613713.576172-.5820312 0-.3207601-.258642-.5800782-.576172-.5800782zm-1.03125 3.4121094c.20419 0 .369141.167517.369141.373047 0 .2059-.164951.373047-.369141.373047-.20452 0-.36914-.167147-.36914-.373047 0-.20575.16462-.373047.36914-.373047zm.910157 0c .20419 0 .36914.167517.36914.373047 0 .2059-.16499.373047-.36914.373047-.20414 0-.371094-.167147-.371094-.373047 0-.20575.166914-.373047.371094-.373047zm.910156 0c .20419 0 .36914.167517.36914.373047 0 .2059-.16495.373047-.36914.373047-.20452 0-.371094-.167147-.371094-.373047 0-.20575.166574-.373047.371094-.373047zm-4.6562501 5.447266c.27978.77743 1.0159621 1.333984 1.8828121 1.333984.86659 0 1.603153-.556524 1.882813-1.333984z" fill="#4d4d4d"/></svg>

<svg xmlns="http://www.w3.org/2000/svg" viewBox="0 0 22 22">
  <defs id="defs3051">
    <style type="text/css" id="current-color-scheme">
      .ColorScheme-Text {
        color:#4d4d4d;
      }
      .ColorScheme-Highlight {
        color:#3daee9;
      }
      </style>
  </defs>
 <path 
       style="fill:currentColor;fill-opacity:1;stroke:none"
	 class="ColorScheme-Text"
        d="M 10.958984 3 C 10.534954 3 10.191406 3.3457275 10.191406 3.7734375 C 10.191256 4.0596175 10.347442 4.3075663 10.576172 4.4414062 L 10.570312 4.4414062 L 10.570312 5.2363281 L 11.300781 5.2363281 L 11.300781 4.4648438 C 11.552171 4.3373938 11.726562 4.0765775 11.726562 3.7734375 C 11.726562 3.3457275 11.383164 3 10.958984 3 z M 11 5.6347656 C 10.43718 5.6551556 9.7876419 5.7650631 9.0761719 6.0332031 C 6.6809619 6.9363231 6.5273438 9.8398438 6.5273438 9.8398438 L 6.5273438 11.431641 C 5.8935838 11.473671 5.3925781 12.004987 5.3925781 12.654297 L 5.3925781 15.945312 C 5.1352781 16.070303 4.9550781 16.333325 4.9550781 16.640625 C 4.9550781 17.068415 5.2989063 17.415946 5.7226562 17.416016 C 6.1468762 17.416016 6.4902344 17.068415 6.4902344 16.640625 C 6.4902344 16.333695 6.3118875 16.070303 6.0546875 15.945312 L 6.0546875 13.744141 C 6.1973875 13.818121 6.3585038 13.8634 6.5273438 13.875 L 6.5273438 14.638672 C 6.5233437 14.700502 6.5175781 14.762972 6.5175781 14.826172 C 6.5175781 14.893202 6.5223438 14.959091 6.5273438 15.025391 L 6.5273438 15.042969 C 6.6296038 16.317259 7.6179737 17.337323 8.8710938 17.476562 L 8.8691406 17.494141 L 11 17.494141 L 13.130859 17.494141 L 13.128906 17.476562 C 14.382076 17.337322 15.370396 16.317289 15.472656 15.042969 L 15.474609 15.042969 L 15.474609 15.025391 C 15.479609 14.959061 15.482422 14.893172 15.482422 14.826172 C 15.482422 14.762822 15.478609 14.700472 15.474609 14.638672 L 15.474609 13.875 C 15.642819 13.86355 15.802622 13.817741 15.945312 13.744141 L 15.945312 15.945312 C 15.688573 16.070293 15.509766 16.333325 15.509766 16.640625 C 15.509766 17.068075 15.853384 17.414062 16.277344 17.414062 C 16.701304 17.414062 17.044922 17.068045 17.044922 16.640625 C 17.044922 16.333505 16.866645 16.070293 16.609375 15.945312 L 16.609375 12.654297 C 16.609375 12.005177 16.107929 11.473841 15.474609 11.431641 L 15.474609 9.8378906 C 15.474609 9.8378906 15.319478 6.9363231 12.923828 6.0332031 C 12.213058 5.7652131 11.56323 5.6551656 11 5.6347656 z M 10.958984 6.9355469 C 10.965084 6.9355469 10.972516 6.9355469 10.978516 6.9355469 C 10.984916 6.9355469 10.994 6.9355469 11 6.9355469 C 11.0059 6.9355469 11.013531 6.9355469 11.019531 6.9355469 C 11.026131 6.9355469 11.035016 6.9355469 11.041016 6.9355469 C 11.480116 6.9438769 12.59928 7.0838788 13.34375 7.7304688 C 14.11127 8.3971488 14.111328 9.4941406 14.111328 9.4941406 C 14.111328 10.483491 13.34375 10.548828 13.34375 10.548828 C 13.0764 10.633928 12.511789 10.591728 12.255859 10.548828 C 12.020459 10.508778 11.157061 10.433875 11.019531 10.421875 C 11.014731 10.422875 11.007 10.423498 11 10.423828 C 10.993 10.422828 10.985469 10.422395 10.980469 10.421875 C 10.843099 10.434115 9.9792806 10.508828 9.7441406 10.548828 C 9.4886606 10.591728 8.92345 10.633928 8.65625 10.548828 C 8.65625 10.548828 7.8886719 10.483301 7.8886719 9.4941406 C 7.8886719 9.4941406 7.8885 8.3971488 8.65625 7.7304688 C 9.4006 7.0838787 10.520334 6.9435469 10.958984 6.9355469 z M 8.9765625 8.8066406 C 8.6581725 8.8066406 8.4003906 9.0660687 8.4003906 9.3867188 C 8.4003906 9.7074888 8.6581725 9.96875 8.9765625 9.96875 C 9.2942025 9.96875 9.5527344 9.7074888 9.5527344 9.3867188 C 9.5527344 9.0660687 9.2941625 8.8066406 8.9765625 8.8066406 z M 12.943359 8.8066406 C 12.624969 8.8066406 12.367188 9.0659588 12.367188 9.3867188 C 12.367188 9.7072288 12.624939 9.9686 12.943359 9.96875 C 13.260889 9.96875 13.519531 9.7073787 13.519531 9.3867188 C 13.519531 9.0659587 13.260889 8.8066406 12.943359 8.8066406 z M 11.912109 12.21875 C 12.116299 12.21875 12.28125 12.386267 12.28125 12.591797 C 12.28125 12.797697 12.116299 12.964844 11.912109 12.964844 C 11.707589 12.964844 11.542969 12.797697 11.542969 12.591797 C 11.542969 12.386047 11.707589 12.21875 11.912109 12.21875 z M 12.822266 12.21875 C 13.026456 12.21875 13.191406 12.386267 13.191406 12.591797 C 13.191406 12.797697 13.026416 12.964844 12.822266 12.964844 C 12.618126 12.964844 12.451172 12.797697 12.451172 12.591797 C 12.451172 12.386047 12.618086 12.21875 12.822266 12.21875 z M 13.732422 12.21875 C 13.936612 12.21875 14.101562 12.386267 14.101562 12.591797 C 14.101562 12.797697 13.936612 12.964844 13.732422 12.964844 C 13.527902 12.964844 13.361328 12.797697 13.361328 12.591797 C 13.361328 12.386047 13.527902 12.21875 13.732422 12.21875 z M 9.0761719 17.666016 C 9.3559519 18.443446 10.092134 19 10.958984 19 C 11.825574 19 12.562137 18.443476 12.841797 17.666016 L 9.0761719 17.666016 z "
     />
</svg>
